;FLAVOR:Marlin
;TIME:4437
;Filament used: 2.70509m
;Layer height: 0.2
;MINX:90.539
;MINY:89.098
;MINZ:0.2
;MAXX:147.143
;MAXY:143.064
;MAXZ:11
;Generated with Cura_SteamEngine 4.12.1
M140 S50
M105
M190 S50
M104 S205
M105
M109 S205
M82 ;absolute extrusion mode
; Ender 3 Custom Start G-code
G92 E0 ; Reset Extruder
G28 ; Home all axes
G1 Z2.0 F3000 ; Move Z Axis up little to prevent scratching of Heat Bed
G1 X0.1 Y20 Z0.3 F5000.0 ; Move to start position
G1 X0.1 Y200.0 Z0.3 F1500.0 E15 ; Draw the first line
G1 X0.4 Y200.0 Z0.3 F5000.0 ; Move to side a little
G1 X0.4 Y20 Z0.3 F1500.0 E30 ; Draw the second line
G92 E0 ; Reset Extruder
G1 Z2.0 F3000 ; Move Z Axis up little to prevent scratching of Heat Bed
G1 X5 Y20 Z0.3 F5000.0 ; Move over to prevent blob squish
G92 E0
G92 E0
G1 F2700 E-5
;LAYER_COUNT:55
;LAYER:0
M107
;MESH:Base.3mf
G0 F6000 X96.895 Y116.327 Z0.2
;TYPE:WALL-INNER
G1 F2700 E0
G1 F1200 X97.444 Y116.424 E0.01854
G1 X97.993 Y116.327 E0.03709
G1 X98.477 Y116.048 E0.05567
G1 X98.836 Y115.62 E0.07425
G1 X99.027 Y115.096 E0.0928
G1 X99.027 Y114.537 E0.11139
G1 X98.836 Y114.014 E0.12991
G1 X98.477 Y113.586 E0.14849
G1 X97.994 Y113.306 E0.16706
G1 X97.444 Y113.21 E0.18563
G1 X96.894 Y113.306 E0.2042
G1 X96.411 Y113.586 E0.22276
G1 X96.052 Y114.014 E0.24134
G1 X95.861 Y114.537 E0.25986
G1 X95.861 Y115.096 E0.27846
G1 X96.052 Y115.621 E0.29704
G1 X96.411 Y116.049 E0.31562
G1 X96.895 Y116.327 E0.33418
G0 F6000 X97.034 Y115.945
;TYPE:WALL-OUTER
G1 F1200 X97.444 Y116.018 E0.34803
G1 X97.854 Y115.945 E0.36188
G1 X98.216 Y115.737 E0.37577
G1 X98.484 Y115.417 E0.38965
G1 X98.627 Y115.025 E0.40353
G1 X98.627 Y114.608 E0.4174
G1 X98.484 Y114.217 E0.43125
G1 X98.216 Y113.897 E0.44513
G1 X97.855 Y113.688 E0.459
G1 X97.444 Y113.616 E0.47288
G1 X97.033 Y113.688 E0.48676
G1 X96.672 Y113.897 E0.50063
G1 X96.404 Y114.217 E0.51452
G1 X96.261 Y114.608 E0.52836
G1 X96.261 Y115.025 E0.54223
G1 X96.404 Y115.418 E0.55614
G1 X96.672 Y115.737 E0.57
G1 X97.034 Y115.945 E0.58389
G0 F6000 X96.884 Y116.358
G1 F2700 E-4.41611
G0 F6000 X97.936 Y116.173
G0 X98.371 Y115.923
G0 X98.694 Y115.539
G0 X98.832 Y115.157
G0 X99.004 Y113.917
G0 X97.723 Y114.653
G0 X105.3 Y89.276
G0 X106.004 Y90.573
G0 X131.738 Y90.363
;TYPE:WALL-INNER
G1 F2700 E0.58389
G1 F1200 X132.428 Y90.737 E0.60999
G1 X133.277 Y91.238 E0.64278
G1 X134.004 Y91.699 E0.67141
G1 X134.762 Y92.216 E0.70193
G1 X135.513 Y92.765 E0.73287
G1 X136.277 Y93.366 E0.7652
G1 X136.947 Y93.929 E0.79431
G1 X137.629 Y94.543 E0.82483
G1 X138.291 Y95.178 E0.85534
G1 X138.944 Y95.849 E0.88648
G1 X139.57 Y96.537 E0.91742
G1 X140.194 Y97.275 E0.94956
G1 X140.743 Y97.965 E0.97889
G1 X141.281 Y98.691 E1.00894
G1 X141.814 Y99.461 E1.04009
G1 X142.305 Y100.226 E1.07032
G1 X142.785 Y101.032 E1.10153
G1 X143.232 Y101.84 E1.13224
G1 X143.645 Y102.652 E1.16254
G1 X144.042 Y103.5 E1.19368
G1 X144.424 Y104.401 E1.22623
G1 X144.738 Y105.211 E1.25512
G1 X145.039 Y106.07 E1.2854
G1 X145.315 Y106.95 E1.31607
G1 X145.563 Y107.847 E1.34703
G1 X145.778 Y108.739 E1.37754
G1 X145.967 Y109.657 E1.40872
G1 X146.122 Y110.553 E1.43896
G1 X146.246 Y111.469 E1.46971
G1 X146.341 Y112.388 E1.50043
G1 X146.405 Y113.31 E1.53117
G1 X146.439 Y114.246 E1.56233
G1 X146.441 Y115.156 E1.59259
G1 X146.411 Y116.092 E1.62374
G1 X146.352 Y117.007 E1.65424
G1 X146.262 Y117.92 E1.68475
G1 X146.141 Y118.835 E1.71545
G1 X145.987 Y119.76 E1.74664
G1 X145.808 Y120.652 E1.7769
G1 X145.594 Y121.558 E1.80786
G1 X145.354 Y122.442 E1.83833
G1 X145.082 Y123.325 E1.86906
G1 X144.776 Y124.21 E1.9002
G1 X144.447 Y125.067 E1.93073
G1 X144.085 Y125.925 E1.96171
G1 X143.704 Y126.75 E1.99193
G1 X143.289 Y127.575 E2.02265
G1 X142.837 Y128.403 E2.05402
G1 X142.378 Y129.181 E2.08407
G1 X141.843 Y130.018 E2.11711
G1 X141.361 Y130.723 E2.14551
G1 X140.814 Y131.467 E2.17623
G1 X140.202 Y132.242 E2.20907
G1 X139.638 Y132.91 E2.23815
G1 X138.986 Y133.631 E2.27048
G1 X138.387 Y134.251 E2.29915
G1 X137.711 Y134.907 E2.33048
G1 X137.041 Y135.513 E2.36053
G1 X136.279 Y136.157 E2.39371
G1 X135.601 Y136.693 E2.42246
G1 X134.864 Y137.237 E2.45293
G1 X134.043 Y137.798 E2.486
G1 X133.323 Y138.258 E2.51442
G1 X132.518 Y138.737 E2.54557
G1 X131.719 Y139.175 E2.57588
G1 X130.902 Y139.589 E2.60634
G1 X130.053 Y139.984 E2.63749
G1 X129.215 Y140.34 E2.66777
G1 X128.347 Y140.674 E2.6987
G1 X127.469 Y140.979 E2.72962
G1 X126.599 Y141.25 E2.75992
G1 X125.696 Y141.498 E2.79107
G1 X124.804 Y141.711 E2.82157
G1 X123.885 Y141.898 E2.85276
G1 X122.984 Y142.05 E2.88316
G1 X122.079 Y142.172 E2.91353
G1 X121.151 Y142.266 E2.94455
G1 X120.232 Y142.327 E2.97518
G1 X119.295 Y142.359 E3.00637
G1 X118.393 Y142.359 E3.03637
G1 X117.456 Y142.327 E3.06755
G1 X116.536 Y142.266 E3.09822
G1 X115.608 Y142.172 E3.12924
G1 X114.704 Y142.05 E3.15958
G1 X113.802 Y141.898 E3.19
G1 X112.884 Y141.711 E3.22116
G1 X111.992 Y141.498 E3.25167
G1 X111.089 Y141.25 E3.28281
G1 X110.218 Y140.979 E3.31315
G1 X109.34 Y140.674 E3.34407
G1 X108.473 Y140.34 E3.37497
G1 X107.635 Y139.984 E3.40525
G1 X106.785 Y139.589 E3.43643
G1 X105.968 Y139.175 E3.46689
G1 X105.157 Y138.73 E3.49766
G1 X104.369 Y138.262 E3.52814
G1 X103.534 Y137.726 E3.56114
G1 X102.828 Y137.239 E3.58967
G1 X102.084 Y136.692 E3.62038
G1 X101.313 Y136.079 E3.65314
G1 X100.647 Y135.514 E3.68219
G1 X99.968 Y134.899 E3.71266
G1 X99.299 Y134.251 E3.74364
G1 X98.626 Y133.55 E3.77596
G1 X98.05 Y132.91 E3.8046
G1 X97.406 Y132.145 E3.83786
G1 X96.881 Y131.478 E3.86609
G1 X96.326 Y130.723 E3.89726
G1 X95.805 Y129.961 E3.92796
G1 X95.286 Y129.14 E3.96026
G1 X94.845 Y128.392 E3.98914
G1 X94.399 Y127.575 E4.0201
G1 X93.983 Y126.75 E4.05083
G1 X93.602 Y125.925 E4.08106
G1 X93.239 Y125.067 E4.11204
G1 X92.911 Y124.21 E4.14256
G1 X92.605 Y123.325 E4.17371
G1 X92.333 Y122.442 E4.20444
G1 X92.094 Y121.558 E4.2349
G1 X91.879 Y120.652 E4.26587
G1 X91.7 Y119.76 E4.29613
G1 X91.546 Y118.835 E4.32732
G1 X91.425 Y117.92 E4.35801
G1 X91.335 Y117.007 E4.38853
G1 X91.276 Y116.092 E4.41902
G1 X91.247 Y115.176 E4.44951
G1 X91.249 Y114.252 E4.48024
G1 X91.282 Y113.316 E4.51139
G1 X91.345 Y112.401 E4.54189
G1 X91.44 Y111.475 E4.57285
G1 X91.563 Y110.574 E4.6031
G1 X91.719 Y109.663 E4.63384
G1 X91.906 Y108.752 E4.66477
G1 X92.124 Y107.848 E4.6957
G1 X92.367 Y106.97 E4.726
G1 X92.647 Y106.075 E4.75719
G1 X92.972 Y105.153 E4.78971
G1 X93.305 Y104.299 E4.82019
G1 X93.674 Y103.438 E4.85135
G1 X94.033 Y102.669 E4.87958
G1 X94.452 Y101.846 E4.91029
G1 X94.899 Y101.037 E4.94104
G1 X95.378 Y100.232 E4.97219
G1 X95.878 Y99.456 E5.0029
G1 X96.399 Y98.701 E5.03341
G1 X96.945 Y97.964 E5.06391
G1 X97.519 Y97.241 E5.09462
G1 X98.118 Y96.537 E5.12536
G1 X98.739 Y95.854 E5.15606
G1 X99.393 Y95.182 E5.18725
G1 X100.049 Y94.551 E5.21752
G1 X100.75 Y93.919 E5.24892
G1 X101.49 Y93.301 E5.28098
G1 X102.174 Y92.766 E5.30987
G1 X102.925 Y92.216 E5.34083
G1 X103.676 Y91.703 E5.37108
G1 X104.516 Y91.173 E5.40411
G1 X105.253 Y90.741 E5.43252
G1 X105.95 Y90.363 E5.4589
G1 X131.738 Y90.363 E6.31661
G0 F6000 X131.84 Y89.963
;TYPE:WALL-OUTER
G1 F1200 X132.619 Y90.385 E6.34608
G1 X133.48 Y90.893 E6.37933
G1 X134.218 Y91.361 E6.40839
G1 X134.998 Y91.893 E6.43979
G1 X135.749 Y92.442 E6.47073
G1 X136.534 Y93.06 E6.50396
G1 X137.204 Y93.623 E6.53307
G1 X137.906 Y94.254 E6.56447
G1 X138.578 Y94.899 E6.59545
G1 X139.231 Y95.57 E6.62659
G1 X139.866 Y96.268 E6.65797
G1 X140.507 Y97.026 E6.69099
G1 X141.056 Y97.716 E6.72032
G1 X141.61 Y98.463 E6.75125
G1 X142.147 Y99.239 E6.78264
G1 X142.649 Y100.021 E6.81354
G1 X143.129 Y100.827 E6.84475
G1 X143.582 Y101.647 E6.8759
G1 X144.007 Y102.482 E6.90707
G1 X144.404 Y103.33 E6.93821
G1 X144.797 Y104.256 E6.97167
G1 X145.111 Y105.066 E7.00056
G1 X145.421 Y105.95 E7.03172
G1 X145.701 Y106.844 E7.06288
G1 X145.952 Y107.753 E7.09424
G1 X146.17 Y108.658 E7.1252
G1 X146.359 Y109.576 E7.15638
G1 X146.518 Y110.499 E7.18753
G1 X146.644 Y111.428 E7.21871
G1 X146.74 Y112.36 E7.24987
G1 X146.805 Y113.295 E7.28105
G1 X146.839 Y114.231 E7.3122
G1 X146.841 Y115.169 E7.3434
G1 X146.811 Y116.105 E7.37454
G1 X146.75 Y117.046 E7.40591
G1 X146.659 Y117.973 E7.43689
G1 X146.536 Y118.901 E7.46802
G1 X146.382 Y119.826 E7.49921
G1 X146.197 Y120.744 E7.53036
G1 X145.98 Y121.663 E7.56176
G1 X145.736 Y122.56 E7.59268
G1 X145.46 Y123.456 E7.62387
G1 X145.154 Y124.341 E7.65501
G1 X144.816 Y125.222 E7.6864
G1 X144.454 Y126.08 E7.71737
G1 X144.061 Y126.93 E7.74852
G1 X143.64 Y127.767 E7.77968
G1 X143.188 Y128.595 E7.81105
G1 X142.715 Y129.396 E7.84199
G1 X142.173 Y130.244 E7.87547
G1 X141.683 Y130.96 E7.90432
G1 X141.128 Y131.715 E7.93549
G1 X140.508 Y132.5 E7.96876
G1 X139.94 Y133.173 E7.99805
G1 X139.274 Y133.909 E8.03106
G1 X138.666 Y134.538 E8.06016
G1 X137.989 Y135.195 E8.09154
G1 X137.299 Y135.819 E8.12248
G1 X136.535 Y136.464 E8.15574
G1 X135.849 Y137.007 E8.18484
G1 X135.09 Y137.567 E8.21621
G1 X134.27 Y138.128 E8.24925
G1 X133.528 Y138.602 E8.27854
G1 X132.723 Y139.081 E8.30969
G1 X131.9 Y139.532 E8.34091
G1 X131.071 Y139.952 E8.37182
G1 X130.222 Y140.347 E8.40296
G1 X129.359 Y140.713 E8.43414
G1 X128.478 Y141.052 E8.46554
G1 X127.593 Y141.36 E8.4967
G1 X126.705 Y141.636 E8.52763
G1 X125.802 Y141.884 E8.55878
G1 X124.884 Y142.103 E8.59017
G1 X123.965 Y142.29 E8.62136
G1 X123.048 Y142.445 E8.65229
G1 X122.119 Y142.57 E8.68347
G1 X121.187 Y142.664 E8.71462
G1 X120.246 Y142.727 E8.74599
G1 X119.309 Y142.759 E8.77717
G1 X118.379 Y142.759 E8.80811
G1 X117.442 Y142.727 E8.83929
G1 X116.5 Y142.664 E8.87069
G1 X115.568 Y142.57 E8.90185
G1 X114.64 Y142.445 E8.93299
G1 X113.722 Y142.29 E8.96396
G1 X112.804 Y142.103 E8.99512
G1 X111.886 Y141.884 E9.0265
G1 X110.983 Y141.636 E9.05765
G1 X110.094 Y141.36 E9.08861
G1 X109.209 Y141.052 E9.11978
G1 X108.329 Y140.713 E9.15114
G1 X107.466 Y140.347 E9.18232
G1 X106.616 Y139.952 E9.2135
G1 X105.787 Y139.532 E9.24441
G1 X104.965 Y139.081 E9.27559
G1 X104.153 Y138.599 E9.307
G1 X103.318 Y138.063 E9.34
G1 X102.593 Y137.563 E9.36929
G1 X101.838 Y137.007 E9.40048
G1 X101.055 Y136.385 E9.43374
G1 X100.388 Y135.819 E9.46283
G1 X99.699 Y135.195 E9.49375
G1 X99.021 Y134.538 E9.52515
G1 X98.329 Y133.818 E9.55837
G1 X97.744 Y133.168 E9.58745
G1 X97.1 Y132.403 E9.62071
G1 X96.559 Y131.715 E9.64982
G1 X96.004 Y130.96 E9.68099
G1 X95.475 Y130.187 E9.71214
G1 X94.941 Y129.343 E9.74536
G1 X94.5 Y128.595 E9.77424
G1 X94.048 Y127.767 E9.80562
G1 X93.626 Y126.93 E9.83679
G1 X93.233 Y126.08 E9.86794
G1 X92.871 Y125.222 E9.89891
G1 X92.533 Y124.341 E9.9303
G1 X92.227 Y123.456 E9.96144
G1 X91.951 Y122.56 E9.99262
G1 X91.708 Y121.663 E10.02353
G1 X91.49 Y120.744 E10.05495
G1 X91.305 Y119.826 E10.0861
G1 X91.151 Y118.901 E10.11728
G1 X91.028 Y117.973 E10.14842
G1 X90.937 Y117.046 E10.1794
G1 X90.876 Y116.105 E10.21076
G1 X90.847 Y115.175 E10.24171
G1 X90.849 Y114.238 E10.27288
G1 X90.882 Y113.302 E10.30403
G1 X90.947 Y112.36 E10.33543
G1 X91.042 Y111.434 E10.36639
G1 X91.169 Y110.507 E10.39751
G1 X91.327 Y109.582 E10.42872
G1 X91.517 Y108.658 E10.4601
G1 X91.735 Y107.754 E10.49103
G1 X91.985 Y106.851 E10.52219
G1 X92.265 Y105.956 E10.55338
G1 X92.599 Y105.008 E10.58681
G1 X92.937 Y104.141 E10.61776
G1 X93.307 Y103.28 E10.64893
G1 X93.677 Y102.488 E10.67801
G1 X94.102 Y101.653 E10.70917
G1 X94.555 Y100.832 E10.74036
G1 X95.034 Y100.027 E10.77151
G1 X95.542 Y99.239 E10.8027
G1 X96.078 Y98.463 E10.83406
G1 X96.632 Y97.715 E10.86502
G1 X97.214 Y96.982 E10.89615
G1 X97.822 Y96.268 E10.92734
G1 X98.452 Y95.575 E10.9585
G1 X99.106 Y94.903 E10.98968
G1 X99.781 Y94.254 E11.02083
G1 X100.482 Y93.622 E11.05222
G1 X101.244 Y92.986 E11.08523
G1 X101.938 Y92.443 E11.11454
G1 X102.689 Y91.893 E11.1455
G1 X103.463 Y91.365 E11.17666
G1 X104.314 Y90.828 E11.21013
G1 X105.062 Y90.389 E11.23898
G1 X105.847 Y89.963 E11.26868
G1 X131.84 Y89.963 E12.13322
G0 F6000 X131.732 Y90.389
G0 X131.639 Y90.753
;TYPE:SKIN
G1 F1200 X132.229 Y91.073 E12.15554
G1 X133.073 Y91.57 E12.18812
G1 X133.784 Y92.021 E12.21612
G1 X134.542 Y92.538 E12.24664
G1 X135.272 Y93.071 E12.2767
G1 X136.026 Y93.664 E12.30861
G1 X136.686 Y94.219 E12.33729
G1 X137.393 Y94.855 E12.36892
G1 X138.012 Y95.45 E12.39747
G1 X138.624 Y96.078 E12.42664
G1 X139.281 Y96.8 E12.45911
G1 X139.888 Y97.518 E12.49038
G1 X140.433 Y98.203 E12.51949
G1 X140.967 Y98.923 E12.54931
G1 X141.486 Y99.672 E12.57962
G1 X141.973 Y100.431 E12.60961
G1 X142.444 Y101.221 E12.6402
G1 X142.885 Y102.017 E12.67047
G1 X143.292 Y102.818 E12.70035
G1 X143.683 Y103.652 E12.73099
G1 X144.063 Y104.548 E12.76336
G1 X144.361 Y105.316 E12.79076
G1 X144.667 Y106.187 E12.82146
G1 X144.939 Y107.054 E12.85168
G1 X145.185 Y107.945 E12.88243
G1 X145.397 Y108.824 E12.9125
G1 X145.583 Y109.723 E12.94304
G1 X145.736 Y110.605 E12.97281
G1 X145.858 Y111.509 E13.00315
G1 X145.951 Y112.415 E13.03344
G1 X146.015 Y113.324 E13.06375
G1 X146.049 Y114.246 E13.09444
G1 X146.051 Y115.144 E13.1243
G1 X146.021 Y116.067 E13.15502
G1 X145.962 Y116.982 E13.18552
G1 X145.876 Y117.869 E13.21516
G1 X145.757 Y118.771 E13.24542
G1 X145.605 Y119.684 E13.2762
G1 X145.428 Y120.562 E13.30599
G1 X145.214 Y121.468 E13.33695
G1 X144.981 Y122.327 E13.36656
G1 X144.713 Y123.198 E13.39687
G1 X144.41 Y124.076 E13.42776
G1 X144.085 Y124.921 E13.45787
G1 X143.73 Y125.761 E13.4882
G1 X143.352 Y126.58 E13.5182
G1 X142.946 Y127.388 E13.54828
G1 X142.497 Y128.21 E13.57943
G1 X142.046 Y128.976 E13.609
G1 X141.517 Y129.803 E13.64165
G1 X141.043 Y130.497 E13.6696
G1 X140.508 Y131.225 E13.69965
G1 X139.904 Y131.99 E13.73207
G1 X139.34 Y132.658 E13.76115
G1 X138.705 Y133.36 E13.79263
G1 X138.111 Y133.975 E13.82107
G1 X137.445 Y134.622 E13.85195
G1 X136.789 Y135.215 E13.88136
G1 X136.037 Y135.851 E13.91412
G1 X135.369 Y136.379 E13.94244
G1 X134.635 Y136.921 E13.97279
G1 X133.828 Y137.472 E14.00529
G1 X133.118 Y137.926 E14.03332
G1 X132.325 Y138.398 E14.06401
G1 X131.532 Y138.833 E14.09409
G1 X130.738 Y139.236 E14.12371
G1 X129.901 Y139.625 E14.15441
G1 X129.069 Y139.978 E14.18447
G1 X128.207 Y140.31 E14.21519
G1 X127.346 Y140.609 E14.24551
G1 X126.491 Y140.875 E14.27529
G1 X125.606 Y141.118 E14.30581
G1 X124.714 Y141.331 E14.33632
G1 X123.807 Y141.516 E14.3671
G1 X122.927 Y141.665 E14.39679
G1 X122.04 Y141.784 E14.42656
G1 X121.125 Y141.876 E14.45714
G1 X120.206 Y141.937 E14.48777
G1 X119.281 Y141.969 E14.51856
G1 X118.407 Y141.969 E14.54763
G1 X117.482 Y141.937 E14.57841
G1 X116.562 Y141.876 E14.60908
G1 X115.647 Y141.784 E14.63967
G1 X114.761 Y141.665 E14.6694
G1 X113.88 Y141.516 E14.69912
G1 X112.974 Y141.331 E14.72987
G1 X112.082 Y141.118 E14.76037
G1 X111.192 Y140.874 E14.79107
G1 X110.34 Y140.609 E14.82074
G1 X109.48 Y140.31 E14.85103
G1 X108.619 Y139.978 E14.88172
G1 X107.787 Y139.625 E14.91178
G1 X106.949 Y139.236 E14.94251
G1 X106.155 Y138.833 E14.97212
G1 X105.35 Y138.391 E15.00267
G1 X104.574 Y137.93 E15.03269
G1 X103.772 Y137.415 E15.06439
G1 X103.033 Y136.906 E15.09424
G1 X102.321 Y136.382 E15.12364
G1 X101.555 Y135.773 E15.15619
G1 X100.903 Y135.219 E15.18464
G1 X100.234 Y134.615 E15.21462
G1 X99.575 Y133.975 E15.24518
G1 X98.907 Y133.279 E15.27726
G1 X98.34 Y132.649 E15.30545
G1 X97.708 Y131.898 E15.3381
G1 X97.187 Y131.236 E15.36612
G1 X96.644 Y130.497 E15.39662
G1 X96.127 Y129.741 E15.42708
G1 X95.616 Y128.932 E15.45891
G1 X95.185 Y128.2 E15.48716
G1 X94.742 Y127.388 E15.51792
G1 X94.332 Y126.574 E15.54824
G1 X93.957 Y125.761 E15.57802
G1 X93.598 Y124.915 E15.60858
G1 X93.278 Y124.077 E15.63842
G1 X92.974 Y123.198 E15.66935
G1 X92.705 Y122.327 E15.69967
G1 X92.474 Y121.468 E15.72926
G1 X92.259 Y120.562 E15.76023
G1 X92.082 Y119.684 E15.79002
G1 X91.93 Y118.771 E15.8208
G1 X91.811 Y117.869 E15.85106
G1 X91.725 Y116.982 E15.8807
G1 X91.666 Y116.067 E15.9112
G1 X91.637 Y115.176 E15.94085
G1 X91.639 Y114.266 E15.97112
G1 X91.672 Y113.343 E16.00184
G1 X91.735 Y112.428 E16.03234
G1 X91.826 Y111.528 E16.06243
G1 X91.947 Y110.64 E16.09224
G1 X92.101 Y109.741 E16.12257
G1 X92.287 Y108.837 E16.15327
G1 X92.502 Y107.946 E16.18376
G1 X92.739 Y107.087 E16.21339
G1 X93.015 Y106.204 E16.24416
G1 X93.338 Y105.288 E16.27647
G1 X93.664 Y104.453 E16.30628
G1 X94.029 Y103.598 E16.3372
G1 X94.38 Y102.846 E16.3648
