;FLAVOR:Marlin
;TIME:3472
;Filament used: 2.33415m
;Layer height: 0.2
;MINX:88.13
;MINY:86.694
;MINZ:0.2
;MAXX:147.73
;MAXY:146.29
;MAXZ:12
;Generated with Cura_SteamEngine 4.12.1
M140 S50
M105
M190 S50
M104 S205
M105
M109 S205
M82 ;absolute extrusion mode
; Ender 3 Custom Start G-code
G92 E0 ; Reset Extruder
G28 ; Home all axes
G1 Z2.0 F3000 ; Move Z Axis up little to prevent scratching of Heat Bed
G1 X0.1 Y20 Z0.3 F5000.0 ; Move to start position
G1 X0.1 Y200.0 Z0.3 F1500.0 E15 ; Draw the first line
G1 X0.4 Y200.0 Z0.3 F5000.0 ; Move to side a little
G1 X0.4 Y20 Z0.3 F1500.0 E30 ; Draw the second line
G92 E0 ; Reset Extruder
G1 Z2.0 F3000 ; Move Z Axis up little to prevent scratching of Heat Bed
G1 X5 Y20 Z0.3 F5000.0 ; Move over to prevent blob squish
G92 E0
G92 E0
G1 F2700 E-5
;LAYER_COUNT:60
;LAYER:0
M107
;MESH:Lid.3mf
G0 F6000 X117.954 Y88.994 Z0.2
;TYPE:WALL-INNER
G1 F2700 E0
G1 F1200 X118.916 Y89.012 E0.032
G1 X119.866 Y89.063 E0.06364
G1 X120.777 Y89.142 E0.09406
G1 X121.728 Y89.257 E0.12592
G1 X122.668 Y89.404 E0.15756
G1 X123.605 Y89.586 E0.18931
G1 X124.606 Y89.818 E0.22349
G1 X125.511 Y90.06 E0.25464
G1 X126.446 Y90.346 E0.28717
G1 X127.337 Y90.653 E0.31851
G1 X128.246 Y91.003 E0.35091
G1 X129.118 Y91.373 E0.38241
G1 X129.947 Y91.758 E0.41281
G1 X130.832 Y92.209 E0.44585
G1 X131.689 Y92.684 E0.47844
G1 X132.493 Y93.167 E0.50964
G1 X133.314 Y93.699 E0.54217
G1 X134.076 Y94.231 E0.57308
G1 X134.859 Y94.822 E0.60571
G1 X135.599 Y95.42 E0.63736
G1 X136.323 Y96.048 E0.66923
G1 X137.015 Y96.692 E0.70067
G1 X137.045 Y96.725 E0.70216
G1 X137.696 Y97.373 E0.73271
G1 X138.355 Y98.078 E0.76481
G1 X139.02 Y98.846 E0.79859
G1 X139.583 Y99.539 E0.82829
G1 X140.16 Y100.304 E0.86016
G1 X140.746 Y101.142 E0.89417
G1 X141.233 Y101.891 E0.92389
G1 X141.756 Y102.763 E0.95771
G1 X142.2 Y103.563 E0.98814
G1 X142.633 Y104.409 E1.01975
G1 X143.061 Y105.33 E1.05353
G1 X143.417 Y106.166 E1.08375
G1 X143.759 Y107.052 E1.11534
G1 X144.085 Y108 E1.14868
G1 X144.37 Y108.931 E1.18106
G1 X144.613 Y109.844 E1.21249
G1 X144.82 Y110.732 E1.24281
G1 X145.014 Y111.73 E1.27663
G1 X145.163 Y112.67 E1.30828
G1 X145.279 Y113.614 E1.33992
G1 X145.364 Y114.583 E1.37227
G1 X145.413 Y115.525 E1.40364
G1 X145.43 Y116.484 E1.43554
G1 X145.414 Y117.448 E1.46761
G1 X145.365 Y118.393 E1.49908
G1 X145.281 Y119.368 E1.53163
G1 X145.165 Y120.306 E1.56307
G1 X145.015 Y121.258 E1.59512
G1 X144.834 Y122.192 E1.62677
G1 X144.616 Y123.139 E1.65909
G1 X144.372 Y124.052 E1.69052
G1 X144.088 Y124.98 E1.7228
G1 X143.762 Y125.922 E1.75595
G1 X143.433 Y126.783 E1.78661
G1 X143.062 Y127.658 E1.81822
G1 X142.661 Y128.521 E1.84987
G1 X142.227 Y129.375 E1.88173
G1 X141.738 Y130.257 E1.91527
G1 X141.264 Y131.048 E1.94594
G1 X140.717 Y131.887 E1.97926
G1 X140.201 Y132.626 E2.00923
G1 X139.618 Y133.402 E2.04152
G1 X139.02 Y134.143 E2.07319
G1 X138.358 Y134.904 E2.10673
G1 X137.735 Y135.573 E2.13714
G1 X137.021 Y136.286 E2.1707
G1 X136.364 Y136.902 E2.20065
G1 X135.603 Y137.563 E2.23418
G1 X134.904 Y138.13 E2.26412
G1 X134.092 Y138.742 E2.29794
G1 X133.301 Y139.297 E2.33007
G1 X132.548 Y139.787 E2.35995
G1 X131.689 Y140.304 E2.3933
G1 X130.839 Y140.776 E2.42564
G1 X129.985 Y141.212 E2.45753
G1 X129.126 Y141.613 E2.48906
G1 X128.247 Y141.986 E2.52082
G1 X127.338 Y142.335 E2.5532
G1 X126.437 Y142.646 E2.58491
G1 X125.525 Y142.926 E2.61664
G1 X124.607 Y143.171 E2.64824
G1 X123.61 Y143.4 E2.68226
G1 X122.72 Y143.573 E2.71242
G1 X121.773 Y143.725 E2.74432
G1 X120.821 Y143.842 E2.77622
G1 X119.874 Y143.926 E2.80784
G1 X118.917 Y143.977 E2.83972
G1 X117.906 Y143.994 E2.87335
G1 X116.944 Y143.976 E2.90535
G1 X115.987 Y143.925 E2.93722
G1 X115.096 Y143.847 E2.96697
G1 X114.132 Y143.73 E2.99927
G1 X113.192 Y143.583 E3.03092
G1 X112.25 Y143.401 E3.06283
G1 X111.254 Y143.17 E3.09683
G1 X110.332 Y142.924 E3.12857
G1 X109.426 Y142.646 E3.16009
G1 X108.523 Y142.334 E3.19187
G1 X107.614 Y141.985 E3.22425
G1 X106.742 Y141.615 E3.25576
G1 X105.913 Y141.23 E3.28616
G1 X105.012 Y140.77 E3.31981
G1 X104.233 Y140.34 E3.3494
G1 X103.349 Y139.81 E3.38368
G1 X102.558 Y139.297 E3.41504
G1 X101.762 Y138.739 E3.44737
G1 X101.006 Y138.171 E3.47882
G1 X100.251 Y137.56 E3.51113
G1 X99.538 Y136.94 E3.54255
G1 X98.839 Y136.288 E3.57435
G1 X98.815 Y136.262 E3.57552
G1 X98.157 Y135.608 E3.60638
G1 X97.495 Y134.899 E3.63864
G1 X96.845 Y134.147 E3.6717
G1 X96.264 Y133.431 E3.70237
G1 X95.693 Y132.677 E3.73383
G1 X95.114 Y131.845 E3.76754
G1 X94.623 Y131.091 E3.79747
G1 X94.097 Y130.213 E3.83151
G1 X93.656 Y129.419 E3.86172
G1 X93.227 Y128.578 E3.89312
G1 X92.799 Y127.657 E3.9269
G1 X92.443 Y126.822 E3.95709
G1 X92.098 Y125.925 E3.98905
G1 X91.773 Y124.98 E4.02229
G1 X91.49 Y124.057 E4.0544
G1 X91.247 Y123.144 E4.08583
G1 X91.037 Y122.24 E4.11669
G1 X90.846 Y121.258 E4.14997
G1 X90.696 Y120.312 E4.18182
G1 X90.58 Y119.368 E4.21346
G1 X90.496 Y118.406 E4.24558
G1 X90.447 Y117.456 E4.27721
G1 X90.43 Y116.504 E4.30888
G1 X90.446 Y115.539 E4.34098
G1 X90.449 Y115.508 E4.34202
G1 X90.494 Y114.596 E4.37239
G1 X90.578 Y113.634 E4.40451
G1 X90.694 Y112.683 E4.43637
G1 X90.845 Y111.729 E4.4685
G1 X91.026 Y110.795 E4.50014
G1 X91.244 Y109.849 E4.53243
G1 X91.487 Y108.937 E4.56382
G1 X91.783 Y107.973 E4.59736
G1 X92.08 Y107.113 E4.62762
G1 X92.43 Y106.199 E4.66018
G1 X92.798 Y105.329 E4.69159
G1 X93.199 Y104.466 E4.72324
G1 X93.632 Y103.613 E4.75506
G1 X94.122 Y102.731 E4.78862
G1 X94.596 Y101.94 E4.81929
G1 X95.143 Y101.1 E4.85263
G1 X95.658 Y100.362 E4.88256
G1 X96.242 Y99.585 E4.91489
G1 X96.84 Y98.845 E4.94654
G1 X97.502 Y98.083 E4.98011
G1 X98.114 Y97.425 E5.01
G1 X98.839 Y96.701 E5.04407
G1 X99.496 Y96.086 E5.07401
G1 X100.252 Y95.429 E5.10732
G1 X100.996 Y94.827 E5.13915
G1 X101.774 Y94.241 E5.17155
G1 X102.558 Y93.692 E5.20338
G1 X103.312 Y93.201 E5.23331
G1 X104.171 Y92.684 E5.26665
G1 X105.027 Y92.208 E5.29923
G1 X105.875 Y91.776 E5.33088
G1 X106.736 Y91.374 E5.36249
G1 X107.613 Y91.002 E5.39417
G1 X108.522 Y90.652 E5.42657
G1 X109.418 Y90.343 E5.45809
G1 X110.341 Y90.06 E5.4902
G1 X111.253 Y89.817 E5.52159
G1 X112.244 Y89.589 E5.55542
G1 X113.141 Y89.414 E5.58581
G1 X114.087 Y89.262 E5.61768
G1 X115.039 Y89.145 E5.64958
G1 X115.986 Y89.062 E5.6812
G1 X116.943 Y89.011 E5.71308
G1 X117.954 Y88.994 E5.74671
G0 F6000 X117.954 Y88.594
;TYPE:WALL-OUTER
G1 F1200 X118.923 Y88.612 E5.77894
G1 X119.901 Y88.664 E5.81152
G1 X120.812 Y88.743 E5.84193
G1 X121.781 Y88.861 E5.8744
G1 X122.744 Y89.011 E5.90681
G1 X123.691 Y89.195 E5.9389
G1 X124.696 Y89.428 E5.97321
G1 X125.628 Y89.677 E6.0053
G1 X126.563 Y89.963 E6.03782
G1 X127.477 Y90.278 E6.06997
G1 X128.39 Y90.63 E6.10252
G1 X129.286 Y91.01 E6.13489
G1 X130.115 Y91.395 E6.16529
G1 X131.026 Y91.859 E6.19929
G1 X131.883 Y92.334 E6.23188
G1 X132.711 Y92.831 E6.264
G1 X133.532 Y93.363 E6.29654
G1 X134.318 Y93.912 E6.32843
G1 X134.36 Y93.946 E6.33022
G1 X135.099 Y94.502 E6.36098
G1 X135.861 Y95.118 E6.39357
G1 X136.595 Y95.755 E6.4259
G1 X137.301 Y96.412 E6.45797
G1 X137.334 Y96.448 E6.4596
G1 X137.988 Y97.1 E6.49031
G1 X138.657 Y97.816 E6.52291
G1 X139.322 Y98.584 E6.55669
G1 X139.902 Y99.298 E6.58729
G1 X140.488 Y100.075 E6.61966
G1 X141.074 Y100.913 E6.65367
G1 X141.576 Y101.685 E6.6843
G1 X142.106 Y102.569 E6.71858
G1 X142.55 Y103.369 E6.74901
G1 X142.996 Y104.24 E6.78156
G1 X143.424 Y105.161 E6.81534
G1 X143.785 Y106.009 E6.84599
G1 X144.137 Y106.922 E6.87854
G1 X144.468 Y107.883 E6.91234
G1 X144.752 Y108.814 E6.94472
G1 X145.003 Y109.753 E6.97704
G1 X145.213 Y110.656 E7.00788
G1 X145.407 Y111.654 E7.04169
G1 X145.56 Y112.621 E7.07426
G1 X145.678 Y113.579 E7.10636
G1 X145.762 Y114.548 E7.13871
G1 X145.813 Y115.518 E7.17102
G1 X145.83 Y116.491 E7.20338
G1 X145.814 Y117.468 E7.23588
G1 X145.81 Y117.51 E7.23729
G1 X145.764 Y118.427 E7.26782
G1 X145.68 Y119.402 E7.30037
G1 X145.56 Y120.368 E7.33275
G1 X145.408 Y121.334 E7.36527
G1 X145.224 Y122.282 E7.39739
G1 X145.006 Y123.229 E7.42971
G1 X144.755 Y124.169 E7.46207
G1 X144.471 Y125.098 E7.49438
G1 X144.136 Y126.065 E7.52842
G1 X143.807 Y126.926 E7.55908
G1 X143.425 Y127.827 E7.59163
G1 X143.018 Y128.702 E7.62372
G1 X142.577 Y129.569 E7.65608
G1 X142.081 Y130.463 E7.69008
G1 X141.607 Y131.254 E7.72075
G1 X141.045 Y132.116 E7.75498
G1 X140.521 Y132.867 E7.78544
G1 X139.937 Y133.643 E7.81774
G1 X139.322 Y134.405 E7.85031
G1 X138.651 Y135.177 E7.88433
G1 X138.028 Y135.846 E7.91473
G1 X137.304 Y136.569 E7.94876
G1 X136.626 Y137.204 E7.97966
G1 X135.855 Y137.874 E8.01363
G1 X135.145 Y138.45 E8.04404
G1 X134.327 Y139.066 E8.0781
G1 X133.531 Y139.624 E8.11043
G1 X132.754 Y140.13 E8.14127
G1 X131.883 Y140.654 E8.17508
G1 X131.029 Y141.128 E8.20757
G1 X130.167 Y141.568 E8.23976
G1 X129.282 Y141.981 E8.27224
G1 X128.391 Y142.359 E8.30443
G1 X127.478 Y142.71 E8.33696
G1 X126.564 Y143.025 E8.36912
G1 X125.636 Y143.31 E8.40141
G1 X124.697 Y143.561 E8.43373
G1 X123.692 Y143.792 E8.46803
G1 X122.796 Y143.966 E8.49839
G1 X121.829 Y144.121 E8.53096
G1 X120.87 Y144.239 E8.5631
G1 X119.902 Y144.325 E8.59542
G1 X118.924 Y144.377 E8.628
G1 X117.906 Y144.394 E8.66186
G1 X116.937 Y144.376 E8.69409
G1 X115.959 Y144.324 E8.72667
G1 X115.048 Y144.244 E8.75709
G1 X114.079 Y144.126 E8.78955
G1 X113.116 Y143.976 E8.82197
G1 X112.168 Y143.793 E8.85408
G1 X111.164 Y143.56 E8.88836
G1 X110.225 Y143.309 E8.92069
G1 X109.296 Y143.024 E8.95301
G1 X108.383 Y142.709 E8.98513
G1 X107.47 Y142.358 E9.01767
G1 X106.574 Y141.978 E9.05004
G1 X105.745 Y141.593 E9.08044
G1 X104.83 Y141.126 E9.1146
G1 X104.027 Y140.683 E9.14511
G1 X103.143 Y140.153 E9.17939
G1 X102.328 Y139.625 E9.21169
G1 X101.532 Y139.067 E9.24402
G1 X100.754 Y138.482 E9.27639
G1 X99.999 Y137.871 E9.3087
G1 X99.265 Y137.233 E9.34105
G1 X98.558 Y136.574 E9.37319
G1 X98.526 Y136.539 E9.37477
G1 X97.866 Y135.882 E9.40574
G1 X97.203 Y135.172 E9.43805
G1 X96.534 Y134.399 E9.47205
G1 X95.953 Y133.683 E9.50272
G1 X95.366 Y132.907 E9.53508
G1 X94.786 Y132.074 E9.56884
G1 X94.28 Y131.297 E9.59968
G1 X93.754 Y130.419 E9.63373
G1 X93.306 Y129.613 E9.6644
G1 X92.864 Y128.747 E9.69674
G1 X92.436 Y127.826 E9.73051
G1 X92.075 Y126.979 E9.76114
G1 X91.723 Y126.065 E9.79371
G1 X91.39 Y125.097 E9.82776
G1 X91.108 Y124.174 E9.85986
G1 X90.857 Y123.235 E9.89219
G1 X90.647 Y122.331 E9.92306
G1 X90.453 Y121.334 E9.95684
G1 X90.3 Y120.367 E9.9894
G1 X90.181 Y119.402 E10.02174
G1 X90.098 Y118.44 E10.05386
G1 X90.047 Y117.463 E10.0864
G1 X90.03 Y116.497 E10.11853
G1 X90.046 Y115.517 E10.15113
G1 X90.05 Y115.478 E10.15243
G1 X90.096 Y114.561 E10.18297
G1 X90.181 Y113.585 E10.21556
G1 X90.299 Y112.62 E10.24789
G1 X90.452 Y111.653 E10.28045
G1 X90.636 Y110.705 E10.31257
G1 X90.854 Y109.759 E10.34486
G1 X91.105 Y108.82 E10.37719
G1 X91.405 Y107.842 E10.41121
G1 X91.706 Y106.97 E10.4419
G1 X92.056 Y106.056 E10.47445
G1 X92.435 Y105.16 E10.5068
G1 X92.842 Y104.285 E10.5389
G1 X93.282 Y103.419 E10.57121
G1 X93.779 Y102.525 E10.60523
G1 X94.253 Y101.734 E10.6359
G1 X94.815 Y100.871 E10.67015
G1 X95.338 Y100.121 E10.70057
G1 X95.923 Y99.344 E10.73291
G1 X96.538 Y98.583 E10.76546
G1 X97.209 Y97.811 E10.79948
G1 X97.831 Y97.142 E10.82986
G1 X98.556 Y96.418 E10.86394
G1 X99.234 Y95.784 E10.89481
G1 X100 Y95.118 E10.92857
G1 X100.755 Y94.507 E10.96088
G1 X101.533 Y93.921 E10.99327
G1 X102.329 Y93.364 E11.02559
G1 X103.106 Y92.858 E11.05643
G1 X103.977 Y92.334 E11.09023
G1 X104.833 Y91.858 E11.12281
G1 X105.693 Y91.42 E11.15491
G1 X106.58 Y91.006 E11.18747
G1 X107.469 Y90.629 E11.21958
G1 X108.382 Y90.277 E11.25213
G1 X109.301 Y89.96 E11.28446
G1 X110.224 Y89.678 E11.31656
G1 X111.163 Y89.427 E11.34889
G1 X112.167 Y89.196 E11.38316
G1 X113.064 Y89.021 E11.41355
G1 X114.031 Y88.866 E11.44613
G1 X114.99 Y88.748 E11.47826
G1 X115.958 Y88.663 E11.51058
G1 X116.936 Y88.611 E11.54316
G1 X117.954 Y88.594 E11.57702
G0 F6000 X117.954 Y89.034
G0 X117.952 Y89.384
;TYPE:SKIN
G1 F1200 X118.895 Y89.402 E11.60839
G1 X119.845 Y89.453 E11.64003
G1 X120.703 Y89.526 E11.66867
G1 X121.678 Y89.645 E11.70134
G1 X122.646 Y89.796 E11.73393
G1 X123.517 Y89.966 E11.76344
G1 X124.512 Y90.197 E11.79742
G1 X125.396 Y90.433 E11.82785
G1 X126.331 Y90.719 E11.86037
G1 X127.203 Y91.019 E11.89104
G1 X128.1 Y91.365 E11.92302
G1 X128.966 Y91.732 E11.9543
G1 X129.77 Y92.105 E11.98378
G1 X130.643 Y92.55 E12.01637
G1 X131.494 Y93.022 E12.04874
G1 X132.286 Y93.497 E12.07945
G1 X133.096 Y94.023 E12.11158
G1 X133.841 Y94.543 E12.14179
G1 X134.618 Y95.13 E12.17418
G1 X135.349 Y95.72 E12.20543
G1 X136.068 Y96.343 E12.23707
G1 X136.731 Y96.96 E12.26719
G1 X136.763 Y96.995 E12.26877
G1 X137.411 Y97.64 E12.29918
G1 X138.07 Y98.345 E12.33128
G1 X138.718 Y99.092 E12.36417
G1 X139.271 Y99.773 E12.39335
G1 X139.84 Y100.528 E12.42479
G1 X140.419 Y101.355 E12.45837
G1 X140.898 Y102.092 E12.4876
G1 X141.421 Y102.964 E12.52142
G1 X141.853 Y103.741 E12.55099
G1 X142.286 Y104.587 E12.5826
G1 X142.702 Y105.482 E12.61543
G1 X143.055 Y106.312 E12.64542
G1 X143.392 Y107.186 E12.67658
G1 X143.712 Y108.115 E12.70926
G1 X143.995 Y109.039 E12.7414
G1 X144.234 Y109.938 E12.77234
G1 X144.44 Y110.82 E12.80247
G1 X144.62 Y111.738 E12.83358
G1 X144.775 Y112.717 E12.86655
G1 X144.895 Y113.694 E12.89929
G1 X144.974 Y114.603 E12.92963
G1 X145.023 Y115.532 E12.96058
G1 X145.04 Y116.478 E12.99205
G1 X145.024 Y117.428 E13.02365
G1 X144.975 Y118.373 E13.05512
G1 X144.894 Y119.32 E13.08673
G1 X144.78 Y120.242 E13.11763
G1 X144.631 Y121.191 E13.14958
G1 X144.452 Y122.111 E13.18076
G1 X144.239 Y123.038 E13.21239
G1 X143.999 Y123.937 E13.24334
G1 X143.719 Y124.853 E13.2752
G1 X143.397 Y125.783 E13.30793
G1 X143.071 Y126.637 E13.33833
G1 X142.703 Y127.506 E13.36972
G1 X142.314 Y128.344 E13.40045
G1 X141.886 Y129.186 E13.43187
G1 X141.403 Y130.056 E13.46496
G1 X140.937 Y130.835 E13.49515
G1 X140.393 Y131.669 E13.52827
G1 X139.885 Y132.397 E13.5578
G1 X139.314 Y133.157 E13.58942
G1 X138.721 Y133.892 E13.62083
G1 X138.068 Y134.643 E13.65393
G1 X137.456 Y135.301 E13.68381
G1 X136.754 Y136.001 E13.71679
G1 X136.097 Y136.617 E13.74674
G1 X135.352 Y137.264 E13.77956
G1 X134.664 Y137.822 E13.80902
G1 X133.868 Y138.422 E13.84218
G1 X133.083 Y138.973 E13.87408
G1 X132.341 Y139.456 E13.90352
G1 X131.494 Y139.966 E13.93641
G1 X130.65 Y140.435 E13.96852
G1 X129.82 Y140.859 E13.99952
G1 X128.969 Y141.256 E14.03075
G1 X128.101 Y141.624 E14.06211
G1 X127.204 Y141.968 E14.09406
G1 X126.322 Y142.273 E14.1251
G1 X125.424 Y142.549 E14.15635
G1 X124.513 Y142.792 E14.18771
G1 X123.522 Y143.02 E14.22153
G1 X122.653 Y143.189 E14.25098
G1 X121.743 Y143.335 E14.28163
G1 X120.743 Y143.458 E14.31514
G1 X119.853 Y143.536 E14.34486
G1 X118.896 Y143.587 E14.37673
G1 X117.908 Y143.604 E14.4096
G1 X116.965 Y143.586 E14.44097
G1 X116.008 Y143.535 E14.47284
G1 X115.172 Y143.463 E14.50075
G1 X114.182 Y143.342 E14.53392
G1 X113.239 Y143.195 E14.56567
G1 X112.331 Y143.019 E14.59643
G1 X111.348 Y142.791 E14.62999
G1 X110.433 Y142.547 E14.66149
G1 X109.541 Y142.273 E14.69252
G1 X108.657 Y141.968 E14.72363
G1 X107.76 Y141.623 E14.75559
G1 X106.894 Y141.256 E14.78687
G1 X106.084 Y140.88 E14.81658
G1 X105.201 Y140.429 E14.84955
G1 X104.434 Y140.005 E14.8787
G1 X103.55 Y139.476 E14.91297
G1 X102.776 Y138.973 E14.94367
G1 X101.986 Y138.419 E14.97576
G1 X101.246 Y137.863 E15.00655
G1 X100.497 Y137.257 E15.03859
G1 X99.799 Y136.65 E15.06936
G1 X99.116 Y136.013 E15.10042
G1 X99.096 Y135.991 E15.10141
G1 X98.432 Y135.331 E15.13255
G1 X97.785 Y134.638 E15.16408
G1 X97.144 Y133.896 E15.19669
G1 X96.567 Y133.185 E15.22715
G1 X96.003 Y132.441 E15.2582
G1 X95.438 Y131.628 E15.29113
G1 X94.95 Y130.878 E15.32089
G1 X94.432 Y130.012 E15.35445
G1 X93.997 Y129.23 E15.38422
G1 X93.574 Y128.401 E15.41517
G1 X93.158 Y127.505 E15.44803
G1 X92.805 Y126.676 E15.478
G1 X92.465 Y125.791 E15.50953
G1 X92.142 Y124.853 E15.54253
G1 X91.863 Y123.942 E15.57421
G1 X91.626 Y123.05 E15.60491
G1 X91.417 Y122.152 E15.63558
G1 X91.24 Y121.25 E15.66615
G1 X91.082 Y120.251 E15.69979
G1 X90.964 Y119.289 E15.73203
G1 X90.886 Y118.386 E15.76217
G1 X90.837 Y117.436 E15.79381
G1 X90.82 Y116.51 E15.82462
G1 X90.836 Y115.562 E15.85615
G1 X90.884 Y114.615 E15.88769
